icons/battery-1.svg

<svg width="24" height="24" viewBox="0 0 24 24" fill="none" xmlns="http://www.w3.org/2000/svg">
<path fill-rule="evenodd" clip-rule="evenodd" d="M3.74843 11.9633C3.75574 14.3431 5.71708 16.3 8.09841 16.3H15.9984C18.4002 16.3 20.3322 14.3265 20.2489 12.0777L20.2484 12.0638V12.05C20.2484 9.66416 18.2842 7.69995 15.8984 7.69995H8.09841C5.72176 7.69995 3.84106 9.55804 3.74843 11.9633ZM2.24889 11.9232C2.36276 8.73494 4.87948 6.19995 8.09841 6.19995H15.8984C19.108 6.19995 21.7408 8.82816 21.7484 12.0361C21.8568 15.1811 19.1919 17.8 15.9984 17.8H8.09841C4.8842 17.8 2.24841 15.1642 2.24841 11.95V11.9366L2.24889 11.9232Z" fill="black"/>
<path fill-rule="evenodd" clip-rule="evenodd" d="M6.99841 9.19995C7.41263 9.19995 7.74841 9.53574 7.74841 9.94995V13.95C7.74841 14.3642 7.41263 14.7 6.99841 14.7C6.5842 14.7 6.24841 14.3642 6.24841 13.95V9.94995C6.24841 9.53574 6.5842 9.19995 6.99841 9.19995Z" fill="black"/>
</svg>

<svg xmlns="http://www.w3.org/2000/svg" fill="none" viewBox="0 0 24 24">
  <path fill="#000" fill-rule="evenodd" d="M3.748 11.963c.008 2.38 1.97 4.337 4.35 4.337h7.9c2.402 0 4.334-1.974 4.25-4.222v-.028c0-2.386-1.964-4.35-4.35-4.35h-7.8c-2.376 0-4.257 1.858-4.35 4.263Zm-1.5-.04C2.364 8.735 4.88 6.2 8.099 6.2h7.8c3.21 0 5.843 2.628 5.85 5.836.109 3.145-2.556 5.764-5.75 5.764h-7.9c-3.214 0-5.85-2.636-5.85-5.85v-.027Z" clip-rule="evenodd"/>
  <path fill="#000" fill-rule="evenodd" d="M6.998 9.2a.75.75 0 0 1 .75.75v4a.75.75 0 0 1-1.5 0v-4a.75.75 0 0 1 .75-.75Z" clip-rule="evenodd"/>
</svg>
